icons/svg/leaf-three.svg

<svg width="24" height="24" viewBox="0 0 24 24" fill="none" xmlns="http://www.w3.org/2000/svg">
<path d="M8.52637 7.49866C8.52637 4.87531 10.653 2.74866 13.2764 2.74866L15.493 2.74866C16.3798 2.74866 16.8232 2.74866 17.1619 2.92123C17.4598 3.07303 17.702 3.31525 17.8538 3.61317C18.0264 3.95187 18.0264 4.39524 18.0264 5.28199L18.0264 7.49866C18.0264 7.93226 17.9683 8.3523 17.8594 8.7514M7.14285 11.5915L9.44342 13.8921M15.0673 15.18L8.99585 21.2514M12.0117 9.81C12.9858 9.14215 14.1647 8.7514 15.4349 8.7514H17.8594M12.0117 9.81C11.1647 8.39554 9.61731 7.44866 7.84873 7.44866H5.58599C4.68081 7.44866 4.22822 7.44866 3.88249 7.62482C3.57837 7.77977 3.33111 8.02703 3.17616 8.33114C3 8.67688 3 9.12947 3 10.0346L3 12.2974C3 14.9753 5.17085 17.1461 7.84873 17.1461C8.50456 17.1461 9.12998 17.0159 9.70055 16.78M12.0117 9.81C11.4118 10.2213 10.8897 10.7377 10.4718 11.3327C9.94718 12.0795 9.5869 12.9502 9.44342 13.8921M17.8594 8.7514H18.2634C19.3948 8.7514 19.9606 8.7514 20.3927 8.9716C20.7729 9.1653 21.082 9.47436 21.2756 9.85451C21.4958 10.2867 21.4958 10.8524 21.4958 11.9839L21.4958 14.8123C21.4958 18.1597 18.7823 20.8732 15.4349 20.8732C12.7763 20.8732 10.5175 19.1615 9.70055 16.78M9.44342 13.8921C9.39772 14.1922 9.37401 14.4995 9.37401 14.8123C9.37401 15.5011 9.4889 16.163 9.70055 16.78" stroke="currentColor" stroke-width="1.5" stroke-linecap="round" stroke-linejoin="round"/>
</svg>

<svg xmlns="http://www.w3.org/2000/svg" width="24" height="24" fill="none" viewBox="0 0 24 24"><path stroke="currentColor" stroke-linecap="round" stroke-linejoin="round" stroke-width="1.5" d="M8.526 7.499a4.75 4.75 0 0 1 4.75-4.75h2.217c.887 0 1.33 0 1.669.172.298.152.54.394.692.692.172.339.172.782.172 1.669v2.217c0 .433-.058.853-.167 1.252m-10.716 2.84 2.3 2.301m5.624 1.288-6.071 6.071M12.012 9.81a6.03 6.03 0 0 1 3.423-1.059h2.424M12.012 9.81a4.85 4.85 0 0 0-4.163-2.361H5.586c-.905 0-1.358 0-1.704.176a1.6 1.6 0 0 0-.706.706C3 8.677 3 9.13 3 10.035v2.262a4.85 4.85 0 0 0 6.7 4.483m2.312-6.97a6.1 6.1 0 0 0-1.54 1.523 6 6 0 0 0-1.029 2.56M17.86 8.75h.404c1.132 0 1.698 0 2.13.22.38.194.689.503.883.884.22.432.22.997.22 2.129v2.828A6.06 6.06 0 0 1 9.7 16.78m-.258-2.888A6.1 6.1 0 0 0 9.7 16.78"/></svg>
